icons/svg/poi_colored/wastewater_plant.svg

<?xml version="1.0" encoding="UTF-8" standalone="no"?>
<!-- Created with Inkscape (http://www.inkscape.org/) -->

<svg
   xmlns:dc="http://purl.org/dc/elements/1.1/"
   xmlns:cc="http://creativecommons.org/ns#"
   xmlns:rdf="http://www.w3.org/1999/02/22-rdf-syntax-ns#"
   xmlns:svg="http://www.w3.org/2000/svg"
   xmlns="http://www.w3.org/2000/svg"
   xmlns:xlink="http://www.w3.org/1999/xlink"
   xmlns:sodipodi="http://sodipodi.sourceforge.net/DTD/sodipodi-0.dtd"
   xmlns:inkscape="http://www.inkscape.org/namespaces/inkscape"
   version="1.0"
   width="580"
   height="580"
   id="svg2"
   sodipodi:version="0.32"
   inkscape:version="0.91 r"
   sodipodi:docname="wastewater_plant.svg"
   inkscape:output_extension="org.inkscape.output.svg.inkscape">
  <metadata
     id="metadata2975">
    <rdf:RDF>
      <cc:Work
         rdf:about="">
        <dc:format>image/svg+xml</dc:format>
        <dc:type
           rdf:resource="http://purl.org/dc/dcmitype/StillImage" />
        <cc:license
           rdf:resource="http://web.resource.org/cc/PublicDomain" />
        <dc:language>en</dc:language>
        <dc:title />
      </cc:Work>
    </rdf:RDF>
  </metadata>
  <sodipodi:namedview
     inkscape:window-height="995"
     inkscape:window-width="1280"
     inkscape:pageshadow="2"
     inkscape:pageopacity="0.0"
     guidetolerance="10.0"
     gridtolerance="10.0"
     objecttolerance="10.0"
     borderopacity="1.0"
     bordercolor="#666666"
     pagecolor="#ffffff"
     id="base"
     inkscape:zoom="0.46083855"
     inkscape:cx="200.57135"
     inkscape:cy="359.79035"
     inkscape:window-x="0"
     inkscape:window-y="0"
     inkscape:current-layer="svg2"
     showgrid="false"
     inkscape:window-maximized="1"
     showguides="true"
     inkscape:guide-bbox="true" />
  <defs
     id="defs4">
    <inkscape:perspective
       sodipodi:type="inkscape:persp3d"
       inkscape:vp_x="0 : 290 : 1"
       inkscape:vp_y="6.1230318e-14 : 1000 : 0"
       inkscape:vp_z="580 : 290 : 1"
       inkscape:persp3d-origin="290 : 193.33333 : 1"
       id="perspective2441" />
    <inkscape:perspective
       id="perspective3452"
       inkscape:persp3d-origin="30 : 20 : 1"
       inkscape:vp_z="60 : 30 : 1"
       inkscape:vp_y="0 : 1000 : 0"
       inkscape:vp_x="0 : 30 : 1"
       sodipodi:type="inkscape:persp3d" />
    <symbol
       viewBox="244.5 110 489 219.9"
       id="symbol-university">
      <path
         id="path4460"
         d="M79,43l57,119c0,0,21-96,104-96s124,106,124,106l43-133l82-17L0,17L79,43z" />
      <path
         id="path4462"
         d="M94,176l-21,39"
         stroke-width="20"
         stroke="#000000"
         fill="none" />
      <path
         id="path4464"
         d="M300,19c0,10.5-22.6,19-50.5,19S199,29.5,199,19s22.6-19,50.5-19S300,8.5,300,19z" />
      <path
         id="path4466"
         d="M112,216l-16-38L64,88c0,0-9-8-4-35s16-24,16-24"
         stroke-width="20"
         stroke="#000000"
         ill="none" />
    </symbol>
    <inkscape:perspective
       id="perspective4471"
       inkscape:persp3d-origin="372.04724 : 350.78739 : 1"
       inkscape:vp_z="744.09448 : 526.18109 : 1"
       inkscape:vp_y="0 : 1000 : 0"
       inkscape:vp_x="0 : 526.18109 : 1"
       sodipodi:type="inkscape:persp3d" />
    <inkscape:perspective
       id="perspective4668"
       inkscape:persp3d-origin="6 : 4 : 1"
       inkscape:vp_z="12 : 6 : 1"
       inkscape:vp_y="0 : 1000 : 0"
       inkscape:vp_x="0 : 6 : 1"
       sodipodi:type="inkscape:persp3d" />
    <inkscape:perspective
       id="perspective3826"
       inkscape:persp3d-origin="0.5 : 0.33333333 : 1"
       inkscape:vp_z="1 : 0.5 : 1"
       inkscape:vp_y="0 : 1000 : 0"
       inkscape:vp_x="0 : 0.5 : 1"
       sodipodi:type="inkscape:persp3d" />
    <inkscape:perspective
       id="perspective3855"
       inkscape:persp3d-origin="0.5 : 0.33333333 : 1"
       inkscape:vp_z="1 : 0.5 : 1"
       inkscape:vp_y="0 : 1000 : 0"
       inkscape:vp_x="0 : 0.5 : 1"
       sodipodi:type="inkscape:persp3d" />
    <inkscape:perspective
       id="perspective3909"
       inkscape:persp3d-origin="0.5 : 0.33333333 : 1"
       inkscape:vp_z="1 : 0.5 : 1"
       inkscape:vp_y="0 : 1000 : 0"
       inkscape:vp_x="0 : 0.5 : 1"
       sodipodi:type="inkscape:persp3d" />
    <inkscape:perspective
       id="perspective3950"
       inkscape:persp3d-origin="0.5 : 0.33333333 : 1"
       inkscape:vp_z="1 : 0.5 : 1"
       inkscape:vp_y="0 : 1000 : 0"
       inkscape:vp_x="0 : 0.5 : 1"
       sodipodi:type="inkscape:persp3d" />
    <inkscape:perspective
       id="perspective3972"
       inkscape:persp3d-origin="0.5 : 0.33333333 : 1"
       inkscape:vp_z="1 : 0.5 : 1"
       inkscape:vp_y="0 : 1000 : 0"
       inkscape:vp_x="0 : 0.5 : 1"
       sodipodi:type="inkscape:persp3d" />
    <inkscape:perspective
       id="perspective3994"
       inkscape:persp3d-origin="0.5 : 0.33333333 : 1"
       inkscape:vp_z="1 : 0.5 : 1"
       inkscape:vp_y="0 : 1000 : 0"
       inkscape:vp_x="0 : 0.5 : 1"
       sodipodi:type="inkscape:persp3d" />
    <inkscape:perspective
       id="perspective4016"
       inkscape:persp3d-origin="0.5 : 0.33333333 : 1"
       inkscape:vp_z="1 : 0.5 : 1"
       inkscape:vp_y="0 : 1000 : 0"
       inkscape:vp_x="0 : 0.5 : 1"
       sodipodi:type="inkscape:persp3d" />
    <inkscape:perspective
       id="perspective4837"
       inkscape:persp3d-origin="0.5 : 0.33333333 : 1"
       inkscape:vp_z="1 : 0.5 : 1"
       inkscape:vp_y="0 : 1000 : 0"
       inkscape:vp_x="0 : 0.5 : 1"
       sodipodi:type="inkscape:persp3d" />
    <inkscape:perspective
       id="perspective4971"
       inkscape:persp3d-origin="0.5 : 0.33333333 : 1"
       inkscape:vp_z="1 : 0.5 : 1"
       inkscape:vp_y="0 : 1000 : 0"
       inkscape:vp_x="0 : 0.5 : 1"
       sodipodi:type="inkscape:persp3d" />
    <inkscape:perspective
       id="perspective6216"
       inkscape:persp3d-origin="0.5 : 0.33333333 : 1"
       inkscape:vp_z="1 : 0.5 : 1"
       inkscape:vp_y="0 : 1000 : 0"
       inkscape:vp_x="0 : 0.5 : 1"
       sodipodi:type="inkscape:persp3d" />
    <inkscape:perspective
       id="perspective6764"
       inkscape:persp3d-origin="0.5 : 0.33333333 : 1"
       inkscape:vp_z="1 : 0.5 : 1"
       inkscape:vp_y="0 : 1000 : 0"
       inkscape:vp_x="0 : 0.5 : 1"
       sodipodi:type="inkscape:persp3d" />
    <inkscape:perspective
       id="perspective6817"
       inkscape:persp3d-origin="0.5 : 0.33333333 : 1"
       inkscape:vp_z="1 : 0.5 : 1"
       inkscape:vp_y="0 : 1000 : 0"
       inkscape:vp_x="0 : 0.5 : 1"
       sodipodi:type="inkscape:persp3d" />
    <radialGradient
       gradientUnits="userSpaceOnUse"
       gradientTransform="scale(0.79354273,1.2601716)"
       xlink:href="#linearGradient829"
       id="radialGradient874"
       cx="180.2453"
       cy="198.41902"
       r="101.58017"
       fx="180.2453"
       fy="198.41902" />
    <linearGradient
       id="linearGradient829">
      <stop
         style="stop-color: rgb(255, 255, 255); stop-opacity: 0.341667;"
         offset="0.0000000"
         id="stop830" />
      <stop
         style="stop-color: rgb(255, 255, 255); stop-opacity: 0;"
         offset="1.0000000"
         id="stop831" />
    </linearGradient>
    <radialGradient
       gradientUnits="userSpaceOnUse"
       gradientTransform="scale(1.007004,0.99304475)"
       xlink:href="#linearGradient829"
       id="radialGradient832"
       cx="360.85146"
       cy="167.47372"
       r="46.394721"
       fx="360.85146"
       fy="167.47372" />
    <linearGradient
       id="linearGradient6826">
      <stop
         style="stop-color: rgb(255, 255, 255); stop-opacity: 0.341667;"
         offset="0.0000000"
         id="stop6828" />
      <stop
         style="stop-color: rgb(255, 255, 255); stop-opacity: 0;"
         offset="1.0000000"
         id="stop6830" />
    </linearGradient>
    <linearGradient
       gradientUnits="userSpaceOnUse"
       gradientTransform="scale(0.74491357,1.3424376)"
       xlink:href="#linearGradient855"
       id="linearGradient850"
       x1="465.29425"
       y1="248.24467"
       x2="463.27056"
       y2="405.7687"
       spreadMethod="pad" />
    <linearGradient
       id="linearGradient855">
      <stop
         style="stop-color: rgb(255, 255, 255); stop-opacity: 0;"
         offset="0.0000000"
         id="stop856" />
      <stop
         style="stop-color: rgb(255, 166, 23); stop-opacity: 0.733333;"
         offset="1.0000000"
         id="stop857" />
    </linearGradient>
    <linearGradient
       gradientUnits="userSpaceOnUse"
       gradientTransform="scale(1.4586159,0.68558144)"
       xlink:href="#linearGradient855"
       id="linearGradient854"
       x1="157.80581"
       y1="120.96176"
       x2="155.40575"
       y2="231.63491" />
    <linearGradient
       id="linearGradient6837">
      <stop
         style="stop-color: rgb(255, 255, 255); stop-opacity: 0;"
         offset="0.0000000"
         id="stop6839" />
      <stop
         style="stop-color: rgb(255, 166, 23); stop-opacity: 0.733333;"
         offset="1.0000000"
         id="stop6841" />
    </linearGradient>
    <inkscape:perspective
       id="perspective6928"
       inkscape:persp3d-origin="0.5 : 0.33333333 : 1"
       inkscape:vp_z="1 : 0.5 : 1"
       inkscape:vp_y="0 : 1000 : 0"
       inkscape:vp_x="0 : 0.5 : 1"
       sodipodi:type="inkscape:persp3d" />
    <inkscape:perspective
       id="perspective10781"
       inkscape:persp3d-origin="0.5 : 0.33333333 : 1"
       inkscape:vp_z="1 : 0.5 : 1"
       inkscape:vp_y="0 : 1000 : 0"
       inkscape:vp_x="0 : 0.5 : 1"
       sodipodi:type="inkscape:persp3d" />
    <inkscape:perspective
       id="perspective10806"
       inkscape:persp3d-origin="0.5 : 0.33333333 : 1"
       inkscape:vp_z="1 : 0.5 : 1"
       inkscape:vp_y="0 : 1000 : 0"
       inkscape:vp_x="0 : 0.5 : 1"
       sodipodi:type="inkscape:persp3d" />
    <inkscape:perspective
       id="perspective10878"
       inkscape:persp3d-origin="0.5 : 0.33333333 : 1"
       inkscape:vp_z="1 : 0.5 : 1"
       inkscape:vp_y="0 : 1000 : 0"
       inkscape:vp_x="0 : 0.5 : 1"
       sodipodi:type="inkscape:persp3d" />
    <inkscape:perspective
       id="perspective10919"
       inkscape:persp3d-origin="0.5 : 0.33333333 : 1"
       inkscape:vp_z="1 : 0.5 : 1"
       inkscape:vp_y="0 : 1000 : 0"
       inkscape:vp_x="0 : 0.5 : 1"
       sodipodi:type="inkscape:persp3d" />
    <clipPath
       id="clipoutline2"
       clipPathUnits="userSpaceOnUse">
      <path
         inkscape:connector-curvature="0"
         d="m 55.8,12 0.76,0.16 c 8.84,-2.94 28.68,8.64 24.26,18.96 -1.12,1.62 -0.93,4.5 0.42,6.31 L 56.43,62.25 c -1.39,-1.39 -4.48,-1.36 -5.9,0 L 9.5,101.63 c -3.74,3.59 -0.8,6.64 0.78,8.25 l 7.36,7.36 c 1.61,1.6 5.86,3.76 8.88,0.56 L 65.24,76.99 c 1.35,-1.42 1.36,-4.47 0,-5.87 0,0 0.01,-0.02 0,-0.02 L 90.15,46.2 c 2.63,2.37 5.113827,2.574854 7.47,1.93 4.55057,-1.245432 7.08725,3.206643 9.81,6.46 l -1.23,1.21 c -1.82,1.84 -1.65,4.94 0.39,6.98 2.04,2.04 5.15,2.21 6.97,0.39 l 8.14,-8.13 c 1.82,-1.84 1.65,-4.94 -0.4,-6.97 -1.84,-1.85 -4.51,-2.09 -6.37,-0.77 -5.58,-6.26 -2.65,-7.2 -10.01,-15.35 L 91.13,17.86 C 81.2,8.12 68.3,8.13 55.8,12 z"
         id="outline2" />
    </clipPath>
  </defs>
  <g
     id="g1327"
     transform="translate(0.0735,-0.43022222)">
    <path
       d="M 66.275,1.768 C 24.94,1.768 1.704,23.139 1.704,66.804 l 0,450.123 c 0,40.844 20.895,62.229 62.192,62.229 l 452.024,0 c 41.307,0 62.229,-20.315 62.229,-62.229 l 0,-450.123 c 0,-42.601 -20.922,-65.036 -63.521,-65.036 -0.004,0 -448.495,-0.143 -448.353,0 z"
       style="fill:#111111;stroke:#eeeeee;stroke-width:3.40799999"
       id="path1329"
       inkscape:connector-curvature="0" />
  </g>
  <g
     id="g3338"
     transform="matrix(1.3973279,-0.2437849,0.2437849,1.3973279,-185.07402,-56.183307)" />
  <circle
     style="fill:#ffffff"
     r="76.427925"
     cy="149.87242"
     cx="151.80013"
     id="path2172" />
  <path
     style="fill:#ffffff"
     inkscape:connector-curvature="0"
     d="m 429.61283,302.38659 c -32.45295,0 -61.64939,13.83979 -82.0862,35.90974 0.13865,0.105 0.26611,0.21711 0.39216,0.33196 l 0.14007,-0.17928 77.65318,59.92801 c 1.43566,-0.39218 2.94136,-0.62189 4.49747,-0.62469 9.49777,0 17.20133,7.68955 17.21533,17.1411 0.014,9.46416 -7.67554,17.17611 -17.14109,17.19011 l -0.0435,0 c -9.35069,10e-4 -16.97441,-7.52425 -17.15508,-16.83436 l -77.90249,-60.11569 0.33895,-0.43978 c -0.16107,-0.066 -0.31934,-0.13729 -0.47061,-0.21431 -10.96566,17.30077 -17.3358,37.80201 -17.3358,59.80194 0,61.79788 50.09829,111.89616 111.89756,111.89616 61.79788,0 111.89616,-50.09828 111.89616,-111.89616 -0.001,-61.79787 -50.09828,-111.89475 -111.89616,-111.89475 z"
     id="path20"
     sodipodi:nodetypes="scccccsccccccsscs" />
  <path
     style="fill:#ffffff"
     inkscape:connector-curvature="0"
     d="m 50.344085,412.38736 c 0,32.45295 13.83979,61.64939 35.90974,82.08621 0.105,-0.13865 0.21711,-0.26611 0.33196,-0.39216 l -0.17928,-0.14007 59.928005,-77.65319 c -0.39218,-1.43566 -0.62189,-2.94136 -0.62469,-4.49747 0,-9.49777 7.68955,-17.20133 17.1411,-17.21533 9.46416,-0.014 17.17611,7.67554 17.19011,17.14109 l 0,0.0435 c 0.001,9.35069 -7.52425,16.97441 -16.83436,17.15508 l -60.11569,77.9025 -0.43978,-0.33895 c -0.066,0.16107 -0.13729,0.31934 -0.21431,0.47061 17.30077,10.96566 37.80201,17.3358 59.80194,17.3358 61.79788,0 111.89616,-50.0983 111.89616,-111.89757 0,-61.79788 -50.09828,-111.89616 -111.89616,-111.89616 -61.79787,0.001 -111.894745,50.09828 -111.894745,111.89616 z"
     id="path20-0"
     sodipodi:nodetypes="scccccsccccccsscs" />
  <path
     style="fill:#ffffff"
     inkscape:connector-curvature="0"
     d="M 531.61888,107.44458 C 518.28222,77.858642 493.6667,56.929042 465.14791,47.367432 c -0.0387,0.169553 -0.0886,0.331826 -0.14148,0.493934 l 0.22098,0.05405 -22.72188,95.420644 c 0.94752,1.14766 1.77572,2.42594 2.41776,3.84343 3.90314,8.6587 0.0587,18.84175 -8.55208,22.73866 -8.62231,3.90209 -18.81301,0.0611 -22.71567,-8.56244 l -0.0179,-0.0396 c -3.84362,-8.5242 -0.11617,-18.56694 8.29719,-22.55768 l 22.79053,-95.725056 0.54022,0.128274 c -0.006,-0.173964 -0.006,-0.347551 0.002,-0.517107 -20.27866,-2.887126 -41.58657,-0.269447 -61.64294,8.771512 -56.33842,25.396072 -81.42275,91.656567 -56.02611,147.996257 25.39608,56.33841 91.65656,81.42274 147.99498,56.02667 56.33801,-25.39698 81.42147,-91.65598 56.02539,-147.9944 z"
     id="path20-6"
     sodipodi:nodetypes="scccccsccccccsscs" />
</svg>

<svg width="580" height="580" viewBox="0 0 580 580" fill="none" xmlns="http://www.w3.org/2000/svg">
<g clip-path="url(#clip0)">
<path d="M66.3485 1.33797C25.0135 1.33797 1.77753 22.709 1.77753 66.374V516.497C1.77753 557.341 22.6725 578.726 63.9695 578.726H515.994C557.301 578.726 578.223 558.411 578.223 516.497V66.374C578.223 23.773 557.301 1.33797 514.702 1.33797C514.698 1.33797 66.2065 1.19497 66.3485 1.33797V1.33797Z" fill="#111111" stroke="#EEEEEE" stroke-width="3.408"/>
<path d="M151.8 226.3C194.01 226.3 228.228 192.082 228.228 149.872C228.228 107.662 194.01 73.4443 151.8 73.4443C109.59 73.4443 75.3722 107.662 75.3722 149.872C75.3722 192.082 109.59 226.3 151.8 226.3Z" fill="white"/>
<path d="M429.613 302.387C397.16 302.387 367.963 316.226 347.527 338.296C347.665 338.401 347.793 338.514 347.919 338.628L348.059 338.449L425.712 398.377C427.148 397.985 428.653 397.755 430.21 397.752C439.707 397.752 447.411 405.442 447.425 414.894C447.439 424.358 439.749 432.07 430.284 432.084H430.24C420.89 432.085 413.266 424.559 413.085 415.249L335.183 355.134L335.522 354.694C335.361 354.628 335.202 354.557 335.051 354.48C324.085 371.78 317.715 392.282 317.715 414.281C317.715 476.079 367.814 526.178 429.613 526.178C491.411 526.178 541.509 476.079 541.509 414.281C541.508 352.484 491.411 302.387 429.613 302.387H429.613Z" fill="white"/>
<path d="M50.3441 412.387C50.3441 444.84 64.1839 474.037 86.2539 494.474C86.3589 494.335 86.471 494.207 86.5858 494.081L86.4065 493.941L146.335 416.288C145.942 414.852 145.713 413.347 145.71 411.791C145.71 402.293 153.399 394.589 162.851 394.575C172.315 394.561 180.027 402.251 180.041 411.716V411.76C180.042 421.111 172.517 428.734 163.207 428.915L103.091 506.817L102.651 506.479C102.585 506.64 102.514 506.798 102.437 506.949C119.738 517.915 140.239 524.285 162.239 524.285C224.037 524.285 274.135 474.187 274.135 412.387C274.135 350.59 224.037 300.491 162.239 300.491C100.441 300.492 50.3441 350.59 50.3441 412.387V412.387Z" fill="white"/>
<path d="M531.619 107.445C518.282 77.8586 493.667 56.929 465.148 47.3674C465.109 47.537 465.059 47.6992 465.006 47.8614L465.227 47.9154L442.506 143.336C443.453 144.484 444.281 145.762 444.923 147.179C448.826 155.838 444.982 166.021 436.371 169.918C427.749 173.82 417.558 169.979 413.656 161.356L413.638 161.316C409.794 152.792 413.521 142.749 421.935 138.758L444.725 43.0334L445.266 43.1616C445.26 42.9877 445.26 42.8141 445.268 42.6445C424.989 39.7574 403.681 42.3751 383.625 51.416C327.286 76.8121 302.202 143.073 327.599 199.412C352.995 255.751 419.255 280.835 475.594 255.439C531.932 230.042 557.015 163.783 531.619 107.445V107.445Z" fill="white"/>
</g>
<defs>
<clipPath id="clip0">
<path d="M0 0H580V580H0V0Z" fill="white"/>
</clipPath>
</defs>
</svg>
